lib/brands/icons/fitbit.svg

<svg xmlns="http://www.w3.org/2000/svg" fill="none" aria-hidden="true" viewBox="0 0 48 48"><g id="fitbit-Icon"><path id="Vector" fill="#00B0B9" d="M15.7261 21.5043C15.7261 21.5043 15.7411 21.5043 15.7261 21.5043V21.5043ZM8.19037 21.8704C9.40557 21.8704 10.3807 22.8456 10.3807 24.0608C10.3807 25.276 9.40557 26.2511 8.19037 26.2511C6.97516 26.2511 6 25.276 6 24.0608C6 22.8456 6.97516 21.8704 8.19037 21.8704ZM15.7306 13.9626C17.0658 13.9626 18.161 15.0578 18.161 16.393C18.161 17.7282 17.0658 18.8234 15.7306 18.8234C14.3954 18.8234 13.3002 17.7282 13.3002 16.393C13.3002 15.0578 14.3954 13.9626 15.7306 13.9626ZM15.7306 29.1631V29.1481C17.0658 29.1481 18.161 30.2283 18.161 31.5785C18.161 32.9287 17.0658 34.0389 15.7306 34.0389C14.3954 34.0389 13.3002 32.9437 13.3002 31.5935C13.3002 30.2583 14.3954 29.1631 15.7306 29.1631ZM15.7111 21.5043C17.1664 21.5193 18.2615 22.5995 18.2615 24.0548C18.2615 25.525 17.1814 26.6202 15.7261 26.6202C14.2559 26.6202 13.1757 25.525 13.1757 24.0548C13.1757 22.5995 14.2559 21.5193 15.7111 21.5043V21.5043ZM23.2649 36.5908C24.7351 36.5908 25.9503 37.806 25.9503 39.2613C25.9503 40.7315 24.7351 41.9467 23.2649 41.9467C21.8096 41.9467 20.5944 40.7165 20.5944 39.2613C20.5944 37.806 21.8096 36.5908 23.2649 36.5908ZM25.9503 8.7387C25.9503 10.1939 24.7351 11.4091 23.2649 11.4091C21.8096 11.4091 20.5944 10.1939 20.5944 8.7387C20.5944 7.26846 21.8096 6.05325 23.2649 6.05325C24.7351 6.05325 25.9503 7.26846 25.9503 8.7387V8.7387ZM23.2664 28.803C24.8416 28.803 26.0718 30.1383 26.0718 31.5935C26.0718 33.1838 24.8566 34.399 23.2814 34.399C21.6911 34.399 20.4759 33.1838 20.4759 31.5935C20.4759 30.0182 21.6911 28.803 23.2664 28.803V28.803ZM23.2664 13.5965C24.8416 13.5965 26.0718 14.8117 26.0718 16.402C26.0718 17.9772 24.8566 19.1924 23.2814 19.1924C21.6911 19.1924 20.4759 17.9772 20.4759 16.402C20.4759 14.8117 21.6911 13.5965 23.2664 13.5965V13.5965ZM23.2634 21.1413H23.2784C24.8536 21.1413 26.1889 22.4765 26.1889 24.0668C26.1889 25.642 24.8536 26.9772 23.2784 26.9772C21.6881 26.9772 20.3529 25.642 20.3529 24.0668C20.3529 22.4765 21.6881 21.1413 23.2634 21.1413ZM30.6971 28.4385C32.3924 28.4385 33.8476 29.8937 33.8476 31.604C33.8476 33.2993 32.3924 34.7695 30.6971 34.7695C28.9868 34.7695 27.5316 33.2993 27.5316 31.604C27.5316 29.9087 28.9868 28.4385 30.6971 28.4385ZM30.6971 13.2289C32.3924 13.2289 33.8476 14.6992 33.8476 16.3945C33.8476 18.0898 32.3924 19.56 30.6971 19.56C28.9868 19.56 27.5316 18.1048 27.5316 16.3945C27.5316 14.6992 28.9868 13.2289 30.6971 13.2289V13.2289ZM30.6941 20.7752C32.5094 20.7752 33.9797 22.2305 33.9797 24.0608C33.9797 25.8911 32.5244 27.3463 30.6941 27.3463C28.8788 27.3463 27.4086 25.8911 27.4086 24.0608C27.4086 22.2305 28.8638 20.7752 30.6941 20.7752ZM38.3544 20.4106V20.3956C40.3047 20.3956 41.88 21.9709 42 24.0413C42 26.1116 40.4247 27.7169 38.3544 27.7169C36.284 27.7169 34.7088 26.0066 34.7088 24.0563C34.7088 21.9859 36.4041 20.4106 38.3544 20.4106V20.4106Z"/></g></svg>

<svg xmlns="http://www.w3.org/2000/svg" fill="none" aria-hidden="true" viewBox="0 0 48 48"><path fill="#00B0B9" d="M15.726 21.504s.015 0 0 0Zm-7.536.366c1.216 0 2.19.976 2.19 2.19a2.183 2.183 0 0 1-2.19 2.191A2.183 2.183 0 0 1 6 24.061c0-1.215.975-2.19 2.19-2.19Zm7.54-7.907a2.44 2.44 0 0 1 2.431 2.43 2.44 2.44 0 0 1-2.43 2.43 2.44 2.44 0 0 1-2.43-2.43 2.44 2.44 0 0 1 2.43-2.43Zm0 15.2v-.015a2.43 2.43 0 0 1 2.431 2.43c0 1.35-1.095 2.46-2.43 2.46a2.443 2.443 0 0 1-2.43-2.444 2.44 2.44 0 0 1 2.43-2.43Zm-.019-7.659c1.455.015 2.55 1.095 2.55 2.55 0 1.471-1.08 2.566-2.535 2.566-1.47 0-2.55-1.095-2.55-2.565 0-1.456 1.08-2.536 2.535-2.55Zm7.554 15.087c1.47 0 2.685 1.215 2.685 2.67a2.702 2.702 0 0 1-2.685 2.686c-1.455 0-2.67-1.23-2.67-2.686 0-1.455 1.215-2.67 2.67-2.67ZM25.95 8.739c0 1.455-1.215 2.67-2.685 2.67-1.455 0-2.67-1.215-2.67-2.67 0-1.47 1.215-2.686 2.67-2.686A2.702 2.702 0 0 1 25.95 8.74Zm-2.684 20.064c1.576 0 2.806 1.335 2.806 2.79 0 1.59-1.215 2.806-2.79 2.806-1.59 0-2.806-1.215-2.806-2.806 0-1.575 1.215-2.79 2.79-2.79Zm0-15.207c1.576 0 2.806 1.216 2.806 2.806 0 1.575-1.215 2.79-2.79 2.79-1.59 0-2.806-1.215-2.806-2.79 0-1.59 1.215-2.806 2.79-2.806Zm-.003 7.545h.015c1.576 0 2.91 1.336 2.91 2.926 0 1.575-1.334 2.91-2.91 2.91-1.59 0-2.925-1.335-2.925-2.91 0-1.59 1.335-2.926 2.91-2.926Zm7.434 7.298c1.695 0 3.15 1.455 3.15 3.165 0 1.695-1.455 3.166-3.15 3.166-1.71 0-3.165-1.47-3.165-3.166 0-1.695 1.455-3.165 3.165-3.165Zm0-15.21c1.695 0 3.15 1.47 3.15 3.166 0 1.695-1.455 3.165-3.15 3.165-1.71 0-3.165-1.455-3.165-3.165 0-1.696 1.455-3.166 3.165-3.166Zm-.003 7.546a3.275 3.275 0 0 1 3.286 3.286 3.266 3.266 0 0 1-3.286 3.285 3.275 3.275 0 0 1-3.285-3.285 3.266 3.266 0 0 1 3.285-3.286Zm7.66-.364v-.015c1.95 0 3.526 1.575 3.646 3.645 0 2.07-1.575 3.676-3.646 3.676-2.07 0-3.645-1.71-3.645-3.66 0-2.071 1.695-3.646 3.645-3.646Z"/></svg>
